web/packages/design/src/ResourceIcon/assets/orcasecurity-light.svg

<svg width="72" height="72" viewBox="0 0 72 72" fill="none" xmlns="http://www.w3.org/2000/svg">
<g clip-path="url(#clip0_16963_13930)">
<path d="M36.001 0.551758C31.7658 0.551758 27.8331 1.15679 23.9004 2.66937C29.6482 7.20711 34.4885 13.2574 37.2111 20.5178C45.379 20.8203 51.4294 27.1732 51.4294 35.9461C51.4294 45.0216 45.379 51.0719 37.5136 51.677C34.791 58.9374 30.2532 64.9877 24.2029 69.5254C27.8331 70.7355 31.7658 71.3405 36.001 71.3405C55.9671 71.3405 72.0004 55.9122 72.0004 35.9461C71.6979 15.9801 55.6646 0.551758 36.001 0.551758Z" fill="#101921"/>
<path d="M7.25932 14.4678C6.04925 15.9804 4.83919 17.7955 3.93164 19.6105C9.07441 23.5433 12.0996 29.2911 12.0996 36.2489C12.0996 42.9043 9.07441 48.9546 4.23416 52.5848C5.1417 54.3999 6.35177 56.215 7.56183 57.7276C14.5197 53.1898 19.36 45.3244 19.36 36.2489C19.0574 26.8709 14.2172 19.0055 7.25932 14.4678Z" fill="#0080FF"/>
<path d="M28.1324 49.8613C25.4098 56.2142 21.1746 61.3569 15.4268 65.2896C17.2419 66.4997 19.3595 67.7098 21.4771 68.3148C27.2249 64.0796 32.0651 58.3318 34.7878 51.6764C32.3677 51.6764 30.25 51.0714 28.1324 49.8613Z" fill="#0080FF"/>
<path d="M21.1763 3.57715C19.0587 4.4847 16.9411 5.69476 15.126 6.90482C20.8738 10.535 25.109 15.9803 27.8317 22.0306C29.9493 20.8206 32.0669 20.2155 34.487 20.2155C31.7644 13.5602 26.9241 7.81237 21.1763 3.57715Z" fill="#0080FF"/>
<path d="M13.0096 8.41748C11.4971 9.62754 9.98448 11.1401 8.77441 12.6527C15.1273 16.5854 19.665 23.2408 20.8751 31.1062C21.7826 28.081 23.5977 25.3584 25.7153 23.5433C23.2952 17.1904 18.7574 12.0477 13.0096 8.41748Z" fill="#0080FF"/>
<path d="M21.1758 41.0884C19.6633 48.9538 15.1255 55.6092 9.0752 59.5419C10.2853 61.0544 11.7978 62.567 13.6129 63.7771C19.3607 60.1469 23.8985 55.0041 26.3186 48.6513C23.596 46.8362 22.0834 44.1135 21.1758 41.0884Z" fill="#0080FF"/>
<path d="M2.72264 22.0308C0.907548 26.266 0 31.1062 0 35.9465C0 41.0893 1.21006 45.9295 3.02516 50.1648C7.26038 46.8371 9.68051 41.6943 9.68051 35.9465C9.68051 30.1987 6.95787 25.0559 2.72264 22.0308Z" fill="#0080FF"/>
</g>
<defs>
<clipPath id="clip0_16963_13930">
<rect width="72.0004" height="72" fill="white" transform="translate(0 0.00195312)"/>
</clipPath>
</defs>
</svg>

<svg xmlns="http://www.w3.org/2000/svg" width="72" height="72" fill="none" viewBox="0 0 72 72"><g clip-path="url(#clip0_16963_13930)"><path fill="#101921" d="M36.001.552c-4.235 0-8.168.605-12.1 2.117 5.747 4.538 10.588 10.588 13.31 17.849 8.168.302 14.218 6.655 14.218 15.428 0 9.076-6.05 15.126-13.915 15.731-2.723 7.26-7.26 13.31-13.311 17.848Q29.648 71.34 36 71.341c19.966 0 36-15.429 36-35.395C71.697 15.98 55.664.552 36 .552"/><path fill="#0080ff" d="M7.26 14.468c-1.21 1.512-2.42 3.328-3.328 5.142 5.142 3.933 8.168 9.682 8.168 16.64 0 6.655-3.026 12.706-7.866 16.336.908 1.815 2.118 3.63 3.328 5.143C14.52 53.19 19.36 45.324 19.36 36.248c-.303-9.377-5.143-17.242-12.1-21.78m20.872 35.393q-4.083 9.53-12.705 15.429c1.815 1.21 3.933 2.42 6.05 3.025 5.748-4.235 10.588-9.983 13.31-16.639-2.42 0-4.537-.605-6.655-1.815M21.176 3.577c-2.117.908-4.235 2.118-6.05 3.328 5.748 3.63 9.983 9.075 12.706 15.126 2.117-1.21 4.235-1.815 6.655-1.815-2.723-6.656-7.563-12.404-13.31-16.639"/><path fill="#0080ff" d="M13.01 8.417a28 28 0 0 0-4.236 4.236c6.353 3.932 10.891 10.588 12.101 18.453.908-3.025 2.723-5.748 4.84-7.563-2.42-6.353-6.958-11.495-12.705-15.126m8.166 32.671c-1.513 7.866-6.05 14.521-12.1 18.454 1.21 1.512 2.722 3.025 4.537 4.235 5.748-3.63 10.285-8.773 12.706-15.126-2.723-1.815-4.236-4.538-5.143-7.563M2.723 22.03C.908 26.267 0 31.107 0 35.948c0 5.142 1.21 9.982 3.025 14.218 4.235-3.328 6.656-8.47 6.656-14.218S6.958 25.056 2.723 22.03"/></g><defs><clipPath id="clip0_16963_13930"><path fill="#fff" d="M0 .002h72v72H0z"/></clipPath></defs></svg>
